X: 4
T: The Kitchen Girl
R: reel
M: 4/4
L: 1/8
K: Amix
a4g4 | efed c2 cd | e2 ef gaba | g2 e2 e4|a2af gagf | efed cdef | g2d2 efed | c2A2A4 :|AB=cA BAGB | ABAG EDEG | A2B2=c2d2 | e3f e4|AB=cA BAGB | ABAG EGAB | =c2A2 BAG2 | A3B A4 :|a4g4 | efed c2 cd | e2 ef gaba | g2 e2 e4|a2af gagf | efed c2cB | ABcd efed | c2A2A4 :|


Tune 603	Setting 13615

